<?xml version="1.0" encoding="UTF-8"?>
<map version="1.10" tiledversion="1.10.2" orientation="orthogonal" renderorder="right-down" width="20" height="12" tilewidth="40" tileheight="40" infinite="0" nextlayerid="11" nextobjectid="79">
 <editorsettings>
  <export target="r_depths1.lua" format="lua"/>
 </editorsettings>
 <tileset firstgid="1" source="../tilesets/depths.tsx"/>
 <layer id="5" name="j" width="20" height="12">
  <data encoding="csv">
184,184,184,184,184,184,184,184,184,184,184,184,184,184,184,184,184,184,184,184,
184,184,184,184,184,184,184,184,184,184,184,184,184,184,184,184,184,184,184,184,
184,184,184,184,184,184,184,184,184,184,0,0,0,0,0,0,0,0,0,0,
184,184,184,184,184,184,184,184,184,0,58,58,58,58,58,58,58,58,58,58,
184,184,184,184,184,184,184,184,184,38,38,38,38,38,38,38,38,38,38,38,
184,184,184,184,184,184,184,0,56,56,56,56,56,56,56,38,38,38,38,56,
184,184,184,184,184,184,0,56,56,56,56,56,56,56,56,0,0,0,56,56,
184,184,184,184,184,0,56,56,56,56,56,56,56,56,56,0,0,0,56,0,
184,184,184,184,56,56,56,56,56,56,56,56,56,56,56,0,0,56,56,0,
184,184,184,184,67,56,56,56,56,56,56,56,56,56,56,0,0,56,0,0,
184,184,56,56,56,56,56,56,56,56,56,56,56,56,56,56,56,56,0,0,
110,56,56,56,56,56,56,56,56,56,56,56,56,56,56,56,56,0,0,0
</data>
 </layer>
 <layer id="1" name="Tile Layer 1" width="20" height="12">
  <data encoding="csv">
0,0,0,0,0,0,0,0,0,0,0,0,0,0,0,0,0,0,0,0,
0,0,0,0,0,0,0,0,0,356,257,257,257,257,257,257,257,257,257,257,
0,0,0,0,0,0,0,0,339,374,152,152,152,152,152,152,152,152,152,152,
0,0,0,0,342,342,342,356,357,392,170,170,170,170,170,170,170,170,170,170,
0,0,0,0,338,338,339,374,375,410,411,0,0,0,91,92,92,92,92,92,
0,0,0,0,338,356,357,392,393,0,0,0,0,0,109,110,110,110,110,110,
0,0,338,338,356,374,375,410,411,0,0,0,0,0,109,110,110,110,110,110,
0,0,338,356,374,392,393,0,0,0,0,0,0,0,109,110,110,110,110,110,
338,338,356,374,392,410,411,0,0,0,0,0,0,0,109,110,110,110,110,110,
338,356,374,392,410,411,68,0,0,0,0,0,0,0,109,110,110,110,110,110,
356,374,392,410,85,65,86,0,0,0,0,0,0,0,109,110,110,110,110,110,
374,392,410,411,0,0,0,0,0,0,0,0,0,0,109,110,110,110,110,110
</data>
 </layer>
 <layer id="4" name="fontain" width="20" height="12">
  <data encoding="csv">
0,0,0,342,342,342,342,0,0,0,0,0,0,0,0,0,0,0,0,0,
0,0,0,342,342,342,342,0,0,0,0,0,0,0,0,0,0,0,0,0,
0,0,0,0,342,342,342,0,0,0,0,0,0,0,0,0,0,0,0,0,
0,0,0,0,342,342,342,342,0,0,0,0,0,0,0,0,0,0,0,0,
0,0,0,0,342,342,342,342,0,0,0,0,0,0,0,0,0,0,0,0,
0,0,0,0,342,342,342,342,0,0,0,0,0,0,0,0,0,0,0,0,
0,0,0,0,342,342,342,342,0,0,0,0,0,0,0,0,0,0,0,0,
0,0,0,0,342,342,342,0,0,0,0,0,0,0,0,0,0,0,0,0,
0,0,0,0,342,342,342,0,0,0,0,0,0,0,0,0,0,0,0,0,
0,0,0,0,342,342,342,0,0,0,0,0,0,0,0,0,0,0,0,0,
0,0,0,0,0,0,0,0,0,0,0,0,0,0,0,0,0,0,0,0,
0,0,0,0,0,0,0,0,0,0,0,0,0,0,0,0,0,0,0,0
</data>
 </layer>
 <objectgroup id="9" name="objects_party">
  <object id="49" gid="302" x="160" y="400" width="40" height="40"/>
  <object id="50" gid="303" x="200" y="400" width="40" height="40"/>
  <object id="51" gid="304" x="240" y="400" width="40" height="40"/>
 </objectgroup>
 <objectgroup id="10" name="objects">
  <object id="52" gid="303" x="200" y="360" width="40" height="40"/>
  <object id="53" gid="303" x="200" y="320" width="40" height="40"/>
  <object id="54" gid="303" x="200" y="280" width="40" height="40"/>
  <object id="55" gid="303" x="200" y="200" width="40" height="40"/>
  <object id="56" gid="303" x="200" y="240" width="40" height="40"/>
  <object id="57" gid="303" x="200" y="160" width="40" height="40"/>
  <object id="58" gid="303" x="200" y="120" width="40" height="40"/>
  <object id="59" gid="303" x="200" y="80" width="40" height="40"/>
  <object id="60" gid="303" x="200" y="40" width="40" height="40"/>
  <object id="61" gid="302" x="160" y="320" width="40" height="40"/>
  <object id="62" gid="302" x="160" y="240" width="40" height="40"/>
  <object id="63" gid="302" x="160" y="160" width="40" height="40"/>
  <object id="64" gid="302" x="160" y="80" width="40" height="40"/>
  <object id="65" gid="304" x="240" y="320" width="40" height="40"/>
  <object id="66" gid="304" x="240" y="240" width="40" height="40"/>
  <object id="67" gid="304" x="240" y="160" width="40" height="40"/>
  <object id="68" gid="304" x="240" y="80" width="40" height="40"/>
  <object id="69" gid="286" x="240" y="360" width="40" height="40"/>
  <object id="70" gid="286" x="240" y="280" width="40" height="40"/>
  <object id="71" gid="286" x="240" y="200" width="40" height="40"/>
  <object id="72" gid="286" x="240" y="120" width="40" height="40"/>
  <object id="73" gid="286" x="240" y="40" width="40" height="40"/>
  <object id="74" gid="284" x="160" y="40" width="40" height="40"/>
  <object id="75" gid="284" x="160" y="120" width="40" height="40"/>
  <object id="76" gid="284" x="160" y="200" width="40" height="40"/>
  <object id="77" gid="284" x="160" y="280" width="40" height="40"/>
  <object id="78" gid="284" x="160" y="360" width="40" height="40"/>
 </objectgroup>
 <objectgroup color="#0000ff" id="7" name="collision" tintcolor="#0000ff">
  <object id="6" x="400" y="120" width="400" height="40"/>
  <object id="8" x="400" y="160">
   <polygon points="0,0 -320,320 -400,320 -400,-40 0,-40"/>
  </object>
  <object id="11" x="0" y="480" width="800" height="40"/>
  <object id="15" x="160" y="400">
   <polygon points="0,0 40,40 80,40 120,0 80,-40 40,-40"/>
  </object>
 </objectgroup>
 <objectgroup color="#aa00ff" id="8" name="markers" tintcolor="#aa00ff">
  <object id="13" name="spawn" x="336" y="382">
   <point/>
  </object>
 </objectgroup>
</map>
